X:1
T:Air on G String
T:Air on G String
T:cover from 《Cool Water Sounds And Classical Piano》
T:lengjy
C:lengjy
%%score { 1 | ( 2 3 ) }
L:1/8
Q:1/4=58
M:4/4
K:C
V:1 treble nm="Piano" snm="Pno."
V:2 bass 
V:3 bass 
V:1
"^\n" e8- | e8- | e2 af dcBc | B3 A G4 | g8- | ge_BA d^cgf | f8- | fdAG cB f>e | e6 ^f>g | %9
 c4 eddc | BA (3ABc c2 B>A | G8 |[Q:1/4=65]"^\n" [ce]8 | [ce]4 c3 B | c2 af dc B3/2d/4c/4 | %15
 B3 A G2 z (6:4:6A/4B/4c/4d/4e/4f/4 | g3 G g3 G | z e_BA d^c/d/4c/4 g>f | f3 d' c'3 a | %19
 z dAG cBfe | e4 [GB]2 [^F^f][Gg] | c2 z/ A/B/c/ eddc | BA (3ABc c2 B>A | G8 | B3 G c/B/A/B/- BG | %25
 g2 z G2 G2 _B | A2 e>d ^cgfe | e2 f2 z/ e/d/c/ BA | ^GA B2 z c d2 | z [Ee] [Ff]4 [Ee]2 | %30
 dcBA Bc/d/ cB | c8 | C4 z EDC | [CA]6 G^F | ED G2 A,2- A,B,/C/ | B,2 B,A, G,4 | C4 A,2 ED | %37
[Q:1/4=70] D3 A, B,2 FE | E2 B,E C2 G>F | A6 FC | G,4- G,/A,/B,/C/ DE/F/ | FD E4 EF/G/ | %42
 C4- CE G>[_B,_B] | [_B,_B]2 [A,A]4 C2 | B,D F4 A,3/2B,/4A,/4 | G,2 D2 F E2 D | %46
 C/B,/ A,2 B, B,>A, B,C | C2 z E,2 E,G,C | B3 G c/B/A/B/ A/B/ z/ G/ | g2 z G z2 z _B | %50
 A2 e>Pd ^c>g f>e | e2 f2 z/ e'/d'/c'/ ba | ^ga b2 z c' d'2 | z e' f'2- f' f2 e' | %54
 d'c'ba bc'/d'/ c'b | c'2 z a g4 | [^Fc]4- [Fc]edc | [^fa]6 gf | ed g2 A2- AB/c/ | B2 BA G4 | %60
 c2 G2 A2[Q:1/4=75] ed | d3 A B2 fe | e2 Be c2 gf | %63
 !arpeggio![Acf]2 z A2 A2 (5:4:5z/4 c/4d/4e/4f/4 | G4 z/ A/B/c/ (3def | fd e2- eG (3efg | %66
 c3 z/ A/4B/4 [Cc][Ee] [Gg]>[_B_b] | [_B_b]2 [Aa]2 z2 [Cc]2 | Bd f4 A3/2B/4A/4 | G2 d2 f e2 d | %70
 (3cBA- AB PB>A B>c | c6 eg |[Q:1/4=70]!8va(! e'4 e'2 gb | a2 ee' c'2 bc' | a2 a'f' d'c'bc' | %75
 b3 a g4 | g'3 g3 G2!8va)! | z e_BA d^cgf | f4 d2 c2- | cdAG cBfe | [Ee]3 E2 B[^F^f][Gg] | %81
 [cc']4 ae'd'c' |[Q:1/4=65] ba (3abc' c'2 !arpeggio![d^fb]a | !arpeggio![c_ea]8 | %84
 !arpeggio![dgbd']8 |] %85
V:2
!ped! C,2 C2 B,2 B,,2!ped-up! |!ped! A,,2 A,2 G,2 G,,2!ped-up! |!ped! F,,2 F,2 ^F,2 ^F,,2!ped-up! | %3
!ped! G,,2 G,2 G,,2 F,,2!ped-up! |!ped! E,,2 E,2 D,2 D,,2!ped-up! | %5
!ped! ^C,,2 ^C,2 A,,2 C,2!ped-up! |!ped! D,,2 D,2 C,2 C,,2!ped-up! | %7
!ped! B,,,2 B,,2 G,,2 G,2!ped-up! |!ped! C,2 C2 B,2 B,,2!ped-up! |!ped! A,,2 A,2 ^F,4!ped-up! | %10
!ped! G,2 C,2 D,2 D,,2!ped-up! |!ped! G,,2 B,,2 D,F,E,D,!ped-up! |!ped! z C,E,G, B,,G,B,E!ped-up! | %13
!ped! A,,E,A,E G,,E, G,2!ped-up! |!ped! F,,C, F,2 !arpeggio![^F,^F]4!ped-up! | %15
!ped! G,D G2 z2 F2!ped-up! |!ped! E,,B,, E,2 D,B, D2!ped-up! |!ped! [A,^C]6 [A,,E,]2!ped-up! | %18
!ped! D,,A,, D,2 C,A, C2!ped-up! |!ped! [B,,G,]4 G,,2 G,2!ped-up! |!ped! C,G,CE B,E B,,2!ped-up! | %21
!ped! A,,E, A,2 !arpeggio![^F,A,D]4!ped-up! | %22
!ped! !arpeggio![G,DG]2 !arpeggio![C,E,A,]2 [^FA]2 [D,,C]2!ped-up! | %23
!ped! G,,2 D,B, DG,GD,!ped-up! |!ped! G,,D, G,2 F,2 z F,,!ped-up! | %25
!ped! E,,B,, E,2 D,2 D,,2!ped-up! |!ped! ^C,,2 ^C,2 E,2 A,,2!ped-up! |!ped! D,2 D2 C2 C,2!ped-up! | %28
!ped! B,,2 B,,2 A,2 A,,2!ped-up! |!ped! ^G,2 A,2 B,2 G,2!ped-up! |!ped! A,2 F,2 D,2 E,2!ped-up! | %31
!ped! A,2 A,C G,2 G,,2!ped-up! |!ped! ^F,,2 ^F,2 E,2 E,,2!ped-up! | %33
!ped! D,,2 D,2 C,2 C,,2!ped-up! |!ped! B,,,2 B,,2 C,2 D,2!ped-up! | %35
!ped! G,,2 G,2 F,2 F,,2!ped-up! |!ped! E,,C,E,G, F,,C, F,2!ped-up! | %37
!ped! ^F,,D,^F,A, G,, D,2- D,!ped-up! |!ped! ^G,,^G, G,2 A,, A,2- A,!ped-up! | %39
!ped! D,,A,,D,A, C,, C,2- C,!ped-up! |!ped! B,,2 G,,2 G,,D, G,2!ped-up! | %41
!ped! C,,G,,C,G, _B,,, _B,,2- B,,!ped-up! |!ped! A,,A,,/C,/ E,/A,/C G,,C,/E,/ G,/E,/C,!ped-up! | %43
!ped! F,,C,/F,/ A,C, E,,C,/E,/ G,2!ped-up! |!ped! D,,2 z D,, C,,C, A,2!ped-up! | %45
!ped! B,,,2 G,,,2 C,,2 F,2-!ped-up! |!ped! F,4 G,2 G,,2!ped-up! |!ped! C,2 G,,2 C,,4!ped-up! | %48
!ped! G,,D, G,2 F,3 F,,!ped-up! |!ped! E,,B,, E,2 D,2 D2!ped-up! |!ped! [A,^C]4 [EG]4!ped-up! | %51
!ped! D,A, D2 CA c2!ped-up! |!ped! B,2 z B, AcdA,!ped-up! | ^G,3 A, B,2 G,2 | A,2 F,2 D,2 E,2 | %55
 A,,A, A2 G,G G,,2 | ^F,,2 [F,,^F,]2 [E,,E,]4 | D,,2 D,2 C,2 C,,2 | %58
!ped! B,,,2 B,,2 C,2 D,2!ped-up! |!ped! G,,2 G,4 F,F,,!ped-up! |!ped! z E, E2 F,A,/CF3/2!ped-up! | %61
!ped! ^F,D ^F2 G,D/G/- G2!ped-up! |!ped! ^G,E/^G/- G2 A,A/E/- E2!ped-up! | %63
!ped! D2 [D,,D,]2 C,,2 C,2!ped-up! |!ped! B,,G, B,2 G,,D,G,G,,!ped-up! | %65
!ped! C,,2 z C, _B,,, z/ B,,,/ _B,,2!ped-up! | %66
!ped! A,,E,/A,/ C/E/ z C,/G,,/ z/ E,E,/C,/ z/!ped-up! | %67
!ped! F,,C,/F,/ A,/C/F/A/ E,,E,- E,2!ped-up! |!ped! [D,,D,]2 z D, C,A,/C/ z2!ped-up! | %69
!ped! B,3 G,, C,2 F,2!ped-up! |!ped! G,2 F,2 G,2 G,,2!ped-up! |!ped! C,,G,,C,E, G,C z2!ped-up! | %72
!ped!!8va(! CG c2 B,G B2!ped-up! |!ped! A,E A2 G,E G2!ped-up! |!ped! [Fc]4 [^Fd]4!ped-up! | %75
!ped! G,D G2- G2 F2!ped-up! |!ped! E,B, E2 D,B, D2!ped-up!!8va)! |!ped! ^C,4 A,2 ^C2!ped-up! | %78
!ped! D,A,DF CF- F2!ped-up! |!ped! B,,G, B,2 F,D, G,2!ped-up! |!ped! z G,,C,E, B,,,4!ped-up! | %81
!ped! z z/ A,/ C/E/A ^F,4!ped-up! |!ped! G,2 C2 D2 !arpeggio![D,^F,A,]2!ped-up! | %83
!ped! !arpeggio![G,C]8!ped-up! |!ped! !arpeggio![B,D]8!ped-up! |] %85
V:3
 x8 | x8 | x8 | x8 | x8 | x8 | x8 | x8 | x8 | x8 | x8 | x8 | C,,8 | x8 | x8 | x8 | x8 | x8 | x8 | %19
 x8 | x8 | x8 | x8 | x8 | x8 | x8 | x8 | x8 | x8 | x8 | x8 | x8 | x8 | x8 | x8 | x8 | x8 | x8 | %38
 x8 | x8 | x8 | x8 | x8 | x8 | x8 | x8 | x8 | x8 | x8 | x8 | x8 | x8 | x8 | x8 | x8 | x8 | x8 | %57
 x8 | x8 | x8 | E,,8 | x8 | x8 | x8 | x8 | x8 | x8 | x8 | x8 | x8 | x8 | x8 |!8va(! x8 | x8 | x8 | %75
 x8 | x8!8va)! | x8 | x8 | x4 G,,4 | C,,4 x4 | A,,,4 x4 | x8 | x8 | x8 |] %85

